!!!!SEGMENT: pl-kk--kk-i-356--006_gabrieli-andrea--angelus-ad-pastores.krn
!!!cenid: 17xx:1949
!!!COM: Gabrieli, Andrea
!!!COM-rismID: pe30001185
!!!CDT: 1532/1533-1585/08/30
!!!CNT: Italian
!!!OTL: Angelus ad Pastores
!!!PDT:
!!!AGN: Sacred
!!!SMS-siglum: PL-Kk
!!!SMS-shelfmark: Kk.I.356
!!!SMS-shelfwork: 006 W
!!!SMS-variant:
!!!SMS-altvar:
!!!NIFC-rismSourceID: 1001141440
!!!NIFC-rismChildID: 1001142018
!!!NIFC-islandoraID: pl-kk:5933
!!!URL-pdf-islandora: https://repozytorium.nifc.pl/islandora/object/pl-kk%3A5933/datastream/PDF/view
!!!URL-scan: https://polish.musicsources.pl/pl/lokalizacje/galeria/rekopisy/5972 @EN{Scan on Polish Music Sources Website} @PL{Skany w portalu Dziedzictwo Muzyki Polskiej w otwartym dostępie}
!!!ONB-nifc: UWAGA: tylko partia basu.
!!!AIN: 1 bass
!!!key:
**kern	**text
*Ibass	*
*I"Basso	*
*I'B.	*
*clefF4	*
*k[b-]	*
*b-:	*
*M2/1	*
=1-	=1-
!LO:TX:t=P:problem=oznaczenie metryczne alla breve [zapisano w 2/1 zgodnie z sugestią E.Z.]	!
!LO:TX:t=P:problem=przy kluczu B- BB-	!
00r	.
=2-	=2-
1.C/	An-
2C/	-ge-
=3-	=3-
!LO:TX:t=P:problem=kreska pseudotaktowa	!
1FF/	-lus
1r	.
=4-	=4-
1.C/	An-
2C/	-ge-
=5-	=5-
1.FF/	-lus
!LO:TX:t=P:problem=w źródle 1AA [brak kreski taktowej]	!
1AA/	ad
=6-	=6-
!LO:TX:t=P:problem=kreska pseudotaktowa	!
2AA/	Pa-
2BB-/	-sto-
2FF/	-res
=7-	=7-
1C/	a-
2FF/	-it
!LO:TX:t=P:problem=w źródle 1F [brak kreski taktowej]	!
!!LO:LB:g=original
1F\	ad
=8-	=8-
*2\right	*
!LO:TX:t=P:problem=kreska pseudotaktowa	!
2E\	Pa-
2E\	-sto-
2F\	-res
=9-	=9-
4D/	a-
4E/	.
1F\	.
!LO:TX:t=P:problem=kreska pseudotaktowa	!
2E\	.
=10-	=10-
2F\	-it
2FF/	an-
!LO:SIC:v:l:s=-nun-	!
2C/	-nu-
2AA/	-ti-
=11-	=11-
2BB-/	-o
!LO:TX:t=P:problem=kreska pseudotaktowa	!
2GG/	vo-
2FF/	-bis:
2F\	an-
=12-	=12-
2E\	-nun-
2F\	-ti-
2D\	-o
2E\	vo-
=13-	=13-
2F\	-bis
2FF/	an-
2C/	-nun-
2AA/	-ti-
=14-	=14-
2BB-/	-o
2GG/	vo-
!!LO:LB:g=original
1FF/	-bis
=15-	=15-
1r	.
2r	.
2F\	gau-
=16-	=16-
4BB-/	-di-
4BB-/	-um
2C/	ma-
!LO:TX:t=P:problem=kreska pseudotaktowa	!
1FF/	-gnum
=17-	=17-
0r	.
=18-	=18-
1FF/	an-
2C/	-nun-
2AA/	-ti-
=19-	=19-
2BB-/	-o
2GG/	vo-
!LO:TX:t=P:problem=kreska pseudotaktowa	!
1FF/	-bis
=20-	=20-
1r	.
2r	.
2F\	gau-
=21-	=21-
4BB-/	-di-
4BB-/	-um
2C/	ma-
!LO:TX:t=P:problem=w źródle 0FF [brak kreski taktowej]	!
0FF/	-gnu(m)
=22-	=22-
!LO:TX:t=P:problem=kreska pseudotaktowa	!
!LO:TX:a:t=3	!
0r	.
=23-	=23-
1r	.
=24-	=24-
1.F\	qu-
!LO:TX:t=P:problem=kreska pseudotaktowa	!
2F\	-ia
!!LO:LB:g=original
=25-	=25-
2F\	na-
2G\	-tus
2D/	est
2C/	vo-
=26-	=26-
4F\	-bis
2BB-/	ho-
4C/	-di-
!LO:TX:t=P:problem=kreska pseudotaktowa	!
1FF/	-e
=27-	=27-
0r	.
=28-	=28-
2r	.
2D/	Sal-
4GG/	-va-
4AA/	.
4BB-/	.
4C/	.
=29-	=29-
1D\	.
1C/	-tor
=30-	=30-
1D\	Mun-
!LO:TX:t=P:problem=kreska pseudotaktowa	!
1GG/	-di
=31-	=31-
2rBB	.
2GG/	Sal-
2C/	-va-
2C/	-tor
=32-	=32-
1GG/	Mun-
1C/	-di
=33-	=33-
00r	.
=34-	=34-
!LO:TX:t=P:problem=kreska pseudotaktowa	!
0r	.
!!LO:LB:g=original
=35-	=35-
2.F\	par-
4F\	-vu-
2E\	-lus
!LO:TX:t=P:problem=w źródle 1D [brak kreski taktowej]	!
1D\	Fi-
=36-	=36-
2D\	-li-
2C/	-us
!LO:TX:t=P:problem=w źródle 1BB- [brak kreski taktowej]	!
1BB-/	ho-
=37-	=37-
2BB-/	-di-
!LO:TX:t=P:problem=kreska pseudotaktowa	!
1FF/	-e
=38-	=38-
0r	.
=39-	=39-
2r	.
!LO:TX:t=P:problem=kreska pseudotaktowa	!
2GG/	na-
4D/	-tus
4D/	e(st)
4.D/	no-
!LO:TX:t=P:problem=kreska pseudotaktowa	!
8C/	.
=40-	=40-
2BB-/	.
!LO:TX:t=P:problem=kreska pseudotaktowa	!
2AA/	-bis
2rGG	.
!LO:TX:t=P:problem=w źródle 1GG. [brak kreski taktowej]	!
2.GG/	et
=41-	=41-
4GG/	vo-
4.C/	-ca-
8BB-/	-bi-
4AA/	-t(ur)
2FF/	et
!LO:TX:t=P:problem=kreska pseudotaktowa	!
4FF/	vo-
!!LO:LB:g=original
=42-	=42-
4.BB-/	-ca-
8AA/	-bi-
2GG/	-t(ur)
0r	.
=43-	=43-
!LO:TX:t=P:problem=kreska pseudotaktowa	!
!LO:TX:t=P:problem=w źródle 1C. [brak kreski taktowej]	!
1.C/	De-
=44-	=44-
2FF/	-us
1C/	for-
=45-	=45-
2FF/	-tis
2FF/	al-
2BB-/	-le-
2C/	-lu-
=46-	=46-
2FF/	-ia
*	*ij
2F\	a-
2F\	-le-
!LO:TX:t=P:problem=kreska pseudotaktowa	!
2E\	-lu-
=47-	=47-
4F\	-ia
4FF/	al-
4BB-/	-le-
4C/	-lu-
2FF/	-ia
2rBB	.
=48-	=48-
!LO:TX:t=P:problem=kreska pseudotaktowa	!
0r	.
=49-	=49-
4r	.
4FF/	al-
4BB-/	-le-
!LO:TX:t=P:problem=kreska pseudotaktowa	!
4C/	-lu-
2FF/	-ia
2rBB	.
!!LO:LB:g=original
=50-	=50-
4r	.
2F\	al-
!LO:TX:t=P:problem=kreska pseudotaktowa	!
4D\	-le-
4E-X\	-lu-
4C/	-ia
4D/	al-
4BB-/	-le-
=51-	=51-
1C/	-lu-
2FF/	-ia
!LO:TX:t=P:problem=kreska pseudotaktowa	!
2rBB	.
=52-	=52-
1r	.
2r	.
!LO:TX:t=P:problem=w źródle 1C [brak kreski taktowej]	!
1C/	al-
=53-	=53-
2FF/	-le-
1BB-/	-lu-
=54-	=54-
1FF/	-ia
2BB-/	al-
2BB-/	-le-
=55-	=55-
0BB-/	-lu-
=56-	=56-
!LO:TX:t=P:problem=w źródle 00FF [brak kreski taktowej]	!
[00FF/;	-ia
==	==
*-	*-
!!!EED: Leszek Kubiak
!!!EEV: 2021-02-24
!!!ENC: Andrzej Kubiczek
!!!END: 2021-02-06
!!!YEC: Copyright 2022 Narodowy Instytut Fryderyka Chopina (https://polishscores.org)
!!!YEM: License CC-BY-4.0 (https://creativecommons.org/licenses/by/4.0)
